archdroid-icon-theme/Archdroid-LightGreen/emblems/scalable/emblem-unreadable.svg

<?xml version="1.0" encoding="UTF-8" standalone="no"?>
<svg
   xmlns:dc="http://purl.org/dc/elements/1.1/"
   xmlns:cc="http://creativecommons.org/ns#"
   xmlns:rdf="http://www.w3.org/1999/02/22-rdf-syntax-ns#"
   xmlns:svg="http://www.w3.org/2000/svg"
   xmlns="http://www.w3.org/2000/svg"
   xmlns:sodipodi="http://sodipodi.sourceforge.net/DTD/sodipodi-0.dtd"
   xmlns:inkscape="http://www.inkscape.org/namespaces/inkscape"
   fill="#8BC34A"
   width="48"
   height="48"
   viewBox="0 0 48 48"
   id="svg2"
   version="1.1"
   inkscape:version="0.91 r13725"
   sodipodi:docname="emblem-unreadable.svg">
  <metadata
     id="metadata10">
    <rdf:RDF>
      <cc:Work
         rdf:about="">
        <dc:format>image/svg+xml</dc:format>
        <dc:type
           rdf:resource="http://purl.org/dc/dcmitype/StillImage" />
      </cc:Work>
    </rdf:RDF>
  </metadata>
  <defs
     id="defs8" />
  <sodipodi:namedview
     pagecolor="#ffffff"
     bordercolor="#666666"
     borderopacity="1"
     objecttolerance="10"
     gridtolerance="10"
     guidetolerance="10"
     inkscape:pageopacity="0"
     inkscape:pageshadow="2"
     inkscape:window-width="1366"
     inkscape:window-height="713"
     id="namedview6"
     showgrid="false"
     inkscape:snap-bbox="true"
     inkscape:bbox-nodes="true"
     inkscape:zoom="2.072094064633065"
     inkscape:cx="-196.9439266263068"
     inkscape:cy="-17.07945897534502"
     inkscape:window-x="0"
     inkscape:window-y="30"
     inkscape:window-maximized="1"
     inkscape:current-layer="svg2" />
  <path
     d="M 10 6 C 7.79 6 6.000000000000001 7.790000000000001 6 10 L 6 38 C 6 40.21 7.790000000000001 42 10 42 L 38 42 C 40.21 42 42 40.21 42 38 L 42 10 C 42 7.79 40.21 6.000000000000001 38 6 L 10 6 z M 16.830078125 14 L 24 21.169921875 L 31.169921875 14 L 34 16.830078125 L 26.830078125 24 L 34 31.169921875 L 31.169921875 34 L 24 26.830078125 L 16.830078125 34 L 14 31.169921875 L 21.169921875 24 L 14 16.830078125 L 16.830078125 14 z "
     id="path4148"
     style="fill:#000000;fill-opacity:1" />
</svg>

<svg xmlns="http://www.w3.org/2000/svg" fill="#8BC34A" viewBox="0 0 48 48"><path d="m10 6c-2.21 0-4 1.79-4 4v28c0 2.21 1.79 4 4 4h28c2.21 0 4-1.79 4-4v-28c0-2.21-1.79-4-4-4h-28m6.83 8l7.17 7.17 7.17-7.17 2.83 2.83-7.17 7.17 7.17 7.17-2.83 2.83-7.17-7.17-7.17 7.17-2.83-2.83 7.17-7.17-7.17-7.17 2.83-2.83" fill="#000"/></svg>
